contributed-vectors/fit_on.svg

<svg xmlns="http://www.w3.org/2000/svg" xml:space="preserve" style="fill-rule:evenodd;clip-rule:evenodd;stroke-linejoin:round;stroke-miterlimit:2" viewBox="0 0 192 192"><path d="M164.5 21.5c0-5.519-4.481-10-10-10h-133c-5.519 0-10 4.481-10 10v133c0 5.519 4.481 10 10 10h133c5.519 0 10-4.481 10-10v-133Z" style="fill:#fff" transform="translate(8 8)"/><path d="M126.59 64.107c0-3.837-2.685-6.951-5.993-6.951H76.083c-3.307 0-5.993 3.114-5.993 6.951 0 3.836 2.686 6.95 5.993 6.95h44.514c3.308 0 5.993-3.114 5.993-6.95Z" style="fill:#ababff" transform="matrix(1.043 -.60217 .51918 .89925 -36.84 86.211)"/><path d="M126.59 64.107c0-3.837-3.315-6.951-7.398-6.951H77.488c-4.083 0-7.398 3.114-7.398 6.951 0 3.836 3.315 6.95 7.398 6.95h41.704c4.083 0 7.398-3.114 7.398-6.95Z" style="fill:#ababff" transform="matrix(.74295 -.6323 .67298 .79075 -24.922 123.064)"/><path d="M105.287 82.562a6.95 6.95 0 0 1 6.95 6.95v.001a6.95 6.95 0 0 1-6.95 6.95H74.905a6.954 6.954 0 0 1-6.951-6.951 6.954 6.954 0 0 1 6.951-6.95h30.382Z" style="fill:#9abeff" transform="translate(-2.004 5.059) scale(1.03836)"/><path d="M126.59 64.107c0-3.837-3.001-6.951-6.697-6.951H76.788c-3.697 0-6.698 3.114-6.698 6.951 0 3.836 3.001 6.95 6.698 6.95h43.105c3.696 0 6.697-3.114 6.697-6.95Z" style="fill:#9abeff" transform="matrix(1.07762 0 0 1.03836 -6.973 4.672)"/><circle cx="75.179" cy="115.291" r="1.058" style="fill:#9abeff" transform="matrix(6.81876 0 0 6.81876 -436.832 -661.378)"/></svg>

<?xml version="1.0" encoding="UTF-8" standalone="no"?>
<!DOCTYPE svg PUBLIC "-//W3C//DTD SVG 1.1//EN" "http://www.w3.org/Graphics/SVG/1.1/DTD/svg11.dtd">
<svg width="100%" height="100%" viewBox="0 0 192 192" version="1.1" xmlns="http://www.w3.org/2000/svg" xmlns:xlink="http://www.w3.org/1999/xlink" xml:space="preserve" xmlns:serif="http://www.serif.com/" style="fill-rule:evenodd;clip-rule:evenodd;stroke-linejoin:round;stroke-miterlimit:2;">
    <g transform="matrix(1,0,0,1,8,8)">
        <path d="M164.5,21.5C164.5,15.981 160.019,11.5 154.5,11.5L21.5,11.5C15.981,11.5 11.5,15.981 11.5,21.5L11.5,154.5C11.5,160.019 15.981,164.5 21.5,164.5L154.5,164.5C160.019,164.5 164.5,160.019 164.5,154.5L164.5,21.5Z" style="fill:white;"/>
    </g>
    <g transform="matrix(1.03836,0,0,1.03836,-2.00376,5.05888)">
        <g id="Layer1">
            <g>
                <g transform="matrix(1.00446,-0.579928,0.5,0.866025,-33.5497,78.1541)">
                    <path d="M126.59,64.107C126.59,60.27 123.905,57.156 120.597,57.156L76.083,57.156C72.776,57.156 70.09,60.27 70.09,64.107C70.09,67.943 72.776,71.057 76.083,71.057L120.597,71.057C123.905,71.057 126.59,67.943 126.59,64.107Z" style="fill:rgb(171,171,255);"/>
                </g>
                <g transform="matrix(0.715505,-0.608942,0.64812,0.761538,-22.0716,113.646)">
                    <path d="M126.59,64.107C126.59,60.27 123.275,57.156 119.192,57.156L77.488,57.156C73.405,57.156 70.09,60.27 70.09,64.107C70.09,67.943 73.405,71.057 77.488,71.057L119.192,71.057C123.275,71.057 126.59,67.943 126.59,64.107Z" style="fill:rgb(171,171,255);"/>
                </g>
                <path d="M105.287,82.562C109.125,82.562 112.237,85.673 112.237,89.512L112.237,89.513C112.237,93.352 109.125,96.463 105.287,96.463L74.905,96.463C71.069,96.463 67.954,93.349 67.954,89.512C67.954,85.676 71.069,82.562 74.905,82.562L105.287,82.562Z" style="fill:rgb(154,190,255);"/>
                <g transform="matrix(1.03781,0,-5.55112e-17,1,-4.78606,-0.372364)">
                    <path d="M126.59,64.107C126.59,60.27 123.589,57.156 119.893,57.156L76.788,57.156C73.091,57.156 70.09,60.27 70.09,64.107C70.09,67.943 73.091,71.057 76.788,71.057L119.893,71.057C123.589,71.057 126.59,67.943 126.59,64.107Z" style="fill:rgb(154,190,255);"/>
                </g>
                <g transform="matrix(6.56686,0,0,6.56686,-418.764,-641.817)">
                    <circle cx="75.179" cy="115.291" r="1.058" style="fill:rgb(154,190,255);"/>
                </g>
            </g>
        </g>
    </g>
</svg>
